symbolic/actions/tool-oval-symbolic.svg

<svg xmlns="http://www.w3.org/2000/svg" width="16" height="16"><path style="fill:#323a41" d="M8 2a7 6 0 0 0-7 6 7 6 0 0 0 7 6 7 6 0 0 0 7-6 7 6 0 0 0-7-6zm0 2a5 4 0 0 1 5 4 5 4 0 0 1-5 4 5 4 0 0 1-5-4 5 4 0 0 1 5-4z"/></svg>

<svg xmlns="http://www.w3.org/2000/svg" width="16" height="16" version="1.1">
 <path style="fill:#323a41" d="M 8,2 A 7,6 0 0 0 1,8 7,6 0 0 0 8,14 7,6 0 0 0 15,8 7,6 0 0 0 8,2 Z M 8,4 A 5,4 0 0 1 13,8 5,4 0 0 1 8,12 5,4 0 0 1 3,8 5,4 0 0 1 8,4 Z"/>
</svg>
